build/img/icons/hamburger.svg

<svg width="75" height="70" viewBox="0 0 75 70" fill="none" xmlns="http://www.w3.org/2000/svg">
<path fill-rule="evenodd" clip-rule="evenodd" d="M8.97802 31.544H69.855C69.896 30.925 69.924 30.303 69.924 29.674C69.924 29.2812 69.9081 28.8934 69.8922 28.5046V28.5045L69.892 28.501C69.227 12.657 55.186 0 37.952 0C20.719 0 6.67702 12.657 6.01302 28.501C5.99602 28.891 5.98102 29.281 5.98102 29.674C5.98102 30.303 6.00902 30.925 6.05102 31.544H8.97802ZM21.957 42.465L16.634 38.406L11.308 42.465L5.12002 37.751L6.84102 35.294L11.308 38.695L16.635 34.638L21.958 38.695L27.283 34.638L32.611 38.695L37.939 34.638L43.267 38.695L48.596 34.638L53.923 38.695L59.253 34.639L64.589 38.696L69.063 35.293L70.783 37.752L64.589 42.464L59.253 38.405L53.923 42.465L48.596 38.406L43.267 42.465L37.939 38.406L32.611 42.465L27.283 38.406L21.957 42.465ZM5.05102 46.71H70.854C73.128 46.71 74.988 48.65 74.988 51.023V54.527C74.988 56.899 73.127 58.84 70.853 58.84H69.923V59.893C69.923 65.429 65.581 69.958 60.275 69.958H15.629C10.322 69.958 5.98102 65.429 5.98102 59.893V58.84H5.05102C2.77702 58.84 0.916016 56.899 0.916016 54.527V51.023C0.916016 48.65 2.77702 46.71 5.05102 46.71ZM60.276 66.915C63.987 66.915 67.006 63.765 67.006 59.894H67.005V58.841H8.89802V59.894C8.89802 63.765 11.918 66.915 15.629 66.915H60.276ZM72.071 54.527C72.071 55.215 71.513 55.798 70.853 55.798H5.05102C4.39102 55.798 3.83402 55.216 3.83402 54.527V51.023C3.83402 50.335 4.39202 49.752 5.05102 49.752H70.853C71.513 49.752 72.071 50.334 72.071 51.023V54.527ZM66.973 28.501C66.302 14.359 53.543 3.043 37.952 3.043C22.361 3.043 9.60402 14.359 8.93102 28.501H66.973Z" fill="#81B3D2"/>
</svg>

<svg width="75" height="70" fill="none" xmlns="http://www.w3.org/2000/svg"><path fill-rule="evenodd" clip-rule="evenodd" d="M8.978 31.544h60.877c.041-.619.069-1.241.069-1.87 0-.393-.016-.78-.032-1.17v-.003C69.227 12.657 55.186 0 37.952 0 20.719 0 6.677 12.657 6.013 28.501c-.017.39-.032.78-.032 1.173 0 .629.028 1.251.07 1.87h2.927zm12.979 10.921l-5.323-4.059-5.326 4.059-6.188-4.714 1.721-2.457 4.467 3.401 5.327-4.057 5.323 4.057 5.325-4.057 5.328 4.057 5.328-4.057 5.328 4.057 5.329-4.057 5.327 4.057 5.33-4.056 5.336 4.057 4.474-3.403 1.72 2.459-6.194 4.712-5.336-4.059-5.33 4.06-5.327-4.059-5.329 4.059-5.328-4.059-5.328 4.059-5.328-4.059-5.326 4.059zM5.051 46.71h65.803c2.274 0 4.134 1.94 4.134 4.313v3.504c0 2.372-1.861 4.313-4.135 4.313h-.93v1.053c0 5.536-4.342 10.065-9.648 10.065H15.629c-5.307 0-9.648-4.529-9.648-10.065V58.84h-.93c-2.274 0-4.135-1.941-4.135-4.313v-3.504c0-2.373 1.861-4.313 4.135-4.313zm55.225 20.205c3.711 0 6.73-3.15 6.73-7.021h-.001v-1.053H8.898v1.053c0 3.871 3.02 7.021 6.731 7.021h44.647zm11.795-12.388c0 .688-.558 1.271-1.218 1.271H5.051c-.66 0-1.217-.582-1.217-1.271v-3.504c0-.688.558-1.271 1.217-1.271h65.802c.66 0 1.218.582 1.218 1.271v3.504zm-5.098-26.026c-.671-14.142-13.43-25.458-29.021-25.458-15.591 0-28.348 11.316-29.021 25.458h58.042z" fill="#81B3D2"/></svg>527C72.071 55.215 71.513 55.798 70.853 55.798H5.05102C4.39102 55.798 3.83402 55.216 3.83402 54.527V51.023C3.83402 50.335 4.39202 49.752 5.05102 49.752H70.853C71.513 49.752 72.071 50.334 72.071 51.023V54.527ZM66.973 28.501C66.302 14.359 53.543 3.043 37.952 3.043C22.361 3.043 9.60402 14.359 8.93102 28.501H66.973Z" fill="#81B3D2"/>
</svg>
